X: 1
T: Man of the House
M: 4/4
L: 1/8
K: E dor
|: E2 BE GABG | E/E/E BG FDAF | E2 BE GABe |1 dBAF BAGF :|2 dBAF BEEB ||
| efge fgaf | gfed edBd | ef g/f/e fgaf | gfed Beed |
| efge fgaf | gfed efga | bg a/g/f gfed | edBA GEFD ||
